app/static/images/icons/bem.svg

<svg width="97" height="80" viewBox="0 0 97 80" fill="none" xmlns="http://www.w3.org/2000/svg">
<g clip-path="url(#clip0)">
<path d="M0 12.381H22.7001V19.0476H0V12.381ZM0 0H22.7001V6.66667H0V0ZM40.7266 24.6667H0V31.3333H39.2006C43.4926 31.3333 53.5074 31.4286 57.2271 37.4286V33.7143C55.4149 27.8095 50.0737 24.6667 40.7266 24.6667ZM40.822 37.0476H0V43.7143H39.2006C48.7384 43.7143 54.7473 44.0952 57.2271 45.4286V42.4762C55.3196 37.8095 47.3078 37.0476 40.822 37.0476ZM40.7266 68.4762H0V61.8095H39.2006C43.4926 61.8095 53.5074 61.7143 57.2271 55.7143V59.4286C55.4149 65.3333 50.0737 68.4762 40.7266 68.4762ZM40.822 56.0952H0V49.4286H39.2006C48.7384 49.4286 54.7473 49.0476 57.2271 47.7143V50.6667C55.3196 55.3333 47.3078 56.0952 40.822 56.0952ZM67.1465 80H97.0954V75.9048H68.0049C65.4297 75.9048 59.3255 75.8095 57.1318 72.2857V74.5714C58.1809 78.0952 61.4238 80 67.1465 80ZM67.0511 72.4762H97V68.381H68.0049C62.1868 68.381 58.5624 68.1905 57.1318 67.3333V69.1429C58.2763 72 63.1406 72.4762 67.0511 72.4762Z" fill="#C1AD78"/>
</g>
<defs>
<clipPath id="clip0">
<rect width="97" height="80" fill="white"/>
</clipPath>
</defs>
</svg>

<svg version="1.1" id="Слой_1" xmlns="http://www.w3.org/2000/svg" xmlns:xlink="http://www.w3.org/1999/xlink" x="0px"
     y="0px"
     viewBox="0 0 97 80" style="enable-background:new 0 0 97 80;" xml:space="preserve" fill="#C1AD78">
<rect x="0" y="12.4" class="st0" width="22.7" height="6.7"/>
  <rect x="0" class="st0" width="22.7" height="6.7"/>
  <path class="st0" d="M40.7,24.7H0v6.7h39.2c4.3,0,14.3,0.1,18,6.1v-3.7C55.4,27.8,50,24.7,40.7,24.7z"/>
  <path class="st0" d="M40.8,37H0v6.7h39.2c9.5,0,15.5,0.4,18,1.7v-3C55.3,37.8,47.3,37,40.8,37z"/>
  <path class="st0" d="M40.7,68.5H0v-6.7h39.2c4.3,0,14.3-0.1,18-6.1v3.7C55.4,65.3,50,68.5,40.7,68.5z"/>
  <path class="st0" d="M40.8,56.1H0v-6.7h39.2c9.5,0,15.5-0.4,18-1.7v3C55.3,55.3,47.3,56.1,40.8,56.1z"/>
  <path class="st0" d="M67.1,80H97v-4.1H68c-2.6,0-8.7-0.1-10.9-3.6v2.3C58.1,78.1,61.4,80,67.1,80z"/>
  <path class="st0" d="M67,72.5H97v-4.1H68c-5.8,0-9.4-0.2-10.9-1v1.8C58.2,72,63.1,72.5,67,72.5z"/>
</svg>
